icons/search-eye-line.svg

<svg viewBox="0 0 24 24" fill="currentColor" xmlns="http://www.w3.org/2000/svg"><path d="M18.031 16.6168L22.3137 20.8995L20.8995 22.3137L16.6168 18.031C15.0769 19.263 13.124 20 11 20C6.032 20 2 15.968 2 11C2 6.032 6.032 2 11 2C15.968 2 20 6.032 20 11C20 13.124 19.263 15.0769 18.031 16.6168ZM16.0247 15.8748C17.2475 14.6146 18 12.8956 18 11C18 7.1325 14.8675 4 11 4C7.1325 4 4 7.1325 4 11C4 14.8675 7.1325 18 11 18C12.8956 18 14.6146 17.2475 15.8748 16.0247L16.0247 15.8748ZM12.1779 7.17624C11.4834 7.48982 11 8.18846 11 9C11 10.1046 11.8954 11 13 11C13.8115 11 14.5102 10.5166 14.8238 9.82212C14.9383 10.1945 15 10.59 15 11C15 13.2091 13.2091 15 11 15C8.79086 15 7 13.2091 7 11C7 8.79086 8.79086 7 11 7C11.41 7 11.8055 7.06167 12.1779 7.17624Z"/></svg>

<svg xmlns="http://www.w3.org/2000/svg" viewBox="0 0 24 24">
    <g>
        <path fill="none" d="M0 0h24v24H0z"/>
        <path d="M18.031 16.617l4.283 4.282-1.415 1.415-4.282-4.283A8.96 8.96 0 0 1 11 20c-4.968 0-9-4.032-9-9s4.032-9 9-9 9 4.032 9 9a8.96 8.96 0 0 1-1.969 5.617zm-2.006-.742A6.977 6.977 0 0 0 18 11c0-3.868-3.133-7-7-7-3.868 0-7 3.132-7 7 0 3.867 3.132 7 7 7a6.977 6.977 0 0 0 4.875-1.975l.15-.15zm-3.847-8.699a2 2 0 1 0 2.646 2.646 4 4 0 1 1-2.646-2.646z"/>
    </g>
</svg>
